X:1
T:Corrent 12
C:G. Kapsberger,
C:(from Libro Primo d'Involatura di Lauto, 1611)
Z:abc transcription Taco Walstra (walstra@wins.uva.nl)
L:1/4
M:3
K:CM italian7tab
%%staffsep 2cm
%%tabrhstyle modern
%
,,d1 ,b ,d | [a,c1] > ,d [,bd1] | ,,c ,a [,,de]|,,c ,,,c ,,,,,a|\
,,,c a c | [d,,c1] > b [a,,,d1] | c ,,,a [e,,,c]|
%line 2
[f,,,a] ,b ,a|,,d a c|[e,,,,a] ,a a|,b ,,d f|c a/ c [d,,,c] c|\
[a,,,d1] ,,,,a b | ,,,,c ,,b ,d | d ,,,,d/ b a ,d |
%line 3
[,b,,a1] ,a/ ,b ,d ,b|[,a,,,d1] ,,,,,a ,b|,,,,,b ,,d ,,,,d|\
[,,b,,a] [,,,d,,a] ,,,,c|[,,,,d{8}] ,,,c ,,a| [,,cc] ,,,,d ,,d|\
[,,cc] a c|[e,,c] [a,,,e] f|
%line 4
[b,,a] ,a/ ,b ,d ,b|[,a,a] [,,d,d] [,a,,,a3/2] ,,d// ,a|\
,,d1 ,,,,a {10}::f a [c,d]|[d,,c1] > ,,a ,,b1| ,,d b [a,b]| ,,,d ,d ,b|
%line 5
 ,,,c ,,,a ,a|[,b,,d]a/ b d b|[a,,c1] [,d,d] [,b,c]|[,,ba,d] ,a/ ,b ,d ,b|\
[,ab1] [,bdd] ,d|[,acc] a/ c d c|
%line 6
[a,,,d1] [c,,,c] e|[f,,,a] ,,d ,a/ ,b|,d ,b [,a,,,a3/2] ,,d// ,,c|,,d1 ,,,,a {10} ||
